assets/1. 1-F/Fish cake with swirl/Color/Fish.Cake.With.Swirl-color.svg

<svg width="100%" height="100%" viewBox="0 0 32 32" fill="none" xmlns="http://www.w3.org/2000/svg">
<path d="M3.21384 17.7331C3.09384 18.6231 2.87384 19.5231 3.09384 20.3331C3.39384 21.4731 4.44384 22.2931 5.02384 23.2931C5.60384 24.3031 5.80384 25.6231 6.62384 26.4431C7.44384 27.2631 8.76384 27.4631 9.77384 28.0431C10.7638 28.6231 11.5938 29.6631 12.7338 29.9731C13.8338 30.2631 15.0738 29.7831 16.2638 29.7831C17.4538 29.7831 18.6938 30.2731 19.7938 29.9731C20.9338 29.6731 21.7538 28.6231 22.7538 28.0431C23.7638 27.4631 25.0838 27.2631 25.9038 26.4431C26.7238 25.6231 26.9238 24.3031 27.5038 23.2931C28.0838 22.3031 29.1238 21.4731 29.4338 20.3331C29.6538 19.5131 29.4438 18.6231 29.3138 17.7331H3.21384Z" fill="url(#paint0_linear_18_31080)"/>
<path d="M29.0038 14.6238C29.0038 13.4897 29.4838 12.3071 29.1938 11.2602C28.8938 10.1746 27.8638 9.38939 27.3038 8.43944C26.7338 7.47979 26.5338 6.21965 25.7338 5.44418C24.9338 4.6687 23.6338 4.47484 22.6438 3.92231C21.6638 3.36979 20.8538 2.37137 19.7338 2.09026C18.6538 1.80915 17.4338 2.27444 16.2638 2.27444C15.0938 2.27444 13.8738 1.80915 12.7938 2.09026C11.6738 2.38106 10.8638 3.37948 9.88384 3.92231C8.89384 4.47484 7.59384 4.6687 6.79384 5.44418C5.99384 6.21965 5.79384 7.47979 5.22384 8.43944C4.65384 9.38939 3.62384 10.1746 3.33384 11.2602C3.04384 12.3071 3.52384 13.4897 3.52384 14.6238C3.52384 15.7579 3.04384 16.9405 3.33384 17.9874C3.63384 19.0731 4.66384 19.8583 5.22384 20.8082C5.79384 21.7679 5.99384 23.028 6.79384 23.8035C7.59384 24.5789 8.89384 24.7728 9.88384 25.3253C10.8638 25.8779 11.6738 26.8763 12.7938 27.1574C13.8738 27.4385 15.0938 26.9732 16.2638 26.9732C17.4338 26.9732 18.6538 27.4385 19.7338 27.1574C20.8538 26.8666 21.6638 25.8682 22.6438 25.3253C23.6338 24.7728 24.9338 24.5789 25.7338 23.8035C26.5338 23.028 26.7338 21.7679 27.3038 20.8082C27.8738 19.8583 28.9038 19.0731 29.1938 17.9874C29.4838 16.9309 29.0038 15.7579 29.0038 14.6238Z" fill="#DAD4E8"/>
<path d="M29.0038 14.6238C29.0038 13.4897 29.4838 12.3071 29.1938 11.2602C28.8938 10.1746 27.8638 9.38939 27.3038 8.43944C26.7338 7.47979 26.5338 6.21965 25.7338 5.44418C24.9338 4.6687 23.6338 4.47484 22.6438 3.92231C21.6638 3.36979 20.8538 2.37137 19.7338 2.09026C18.6538 1.80915 17.4338 2.27444 16.2638 2.27444C15.0938 2.27444 13.8738 1.80915 12.7938 2.09026C11.6738 2.38106 10.8638 3.37948 9.88384 3.92231C8.89384 4.47484 7.59384 4.6687 6.79384 5.44418C5.99384 6.21965 5.79384 7.47979 5.22384 8.43944C4.65384 9.38939 3.62384 10.1746 3.33384 11.2602C3.04384 12.3071 3.52384 13.4897 3.52384 14.6238C3.52384 15.7579 3.04384 16.9405 3.33384 17.9874C3.63384 19.0731 4.66384 19.8583 5.22384 20.8082C5.79384 21.7679 5.99384 23.028 6.79384 23.8035C7.59384 24.5789 8.89384 24.7728 9.88384 25.3253C10.8638 25.8779 11.6738 26.8763 12.7938 27.1574C13.8738 27.4385 15.0938 26.9732 16.2638 26.9732C17.4338 26.9732 18.6538 27.4385 19.7338 27.1574C20.8538 26.8666 21.6638 25.8682 22.6438 25.3253C23.6338 24.7728 24.9338 24.5789 25.7338 23.8035C26.5338 23.028 26.7338 21.7679 27.3038 20.8082C27.8738 19.8583 28.9038 19.0731 29.1938 17.9874C29.4838 16.9309 29.0038 15.7579 29.0038 14.6238Z" fill="url(#paint1_radial_18_31080)"/>
<path d="M29.0038 14.6238C29.0038 13.4897 29.4838 12.3071 29.1938 11.2602C28.8938 10.1746 27.8638 9.38939 27.3038 8.43944C26.7338 7.47979 26.5338 6.21965 25.7338 5.44418C24.9338 4.6687 23.6338 4.47484 22.6438 3.92231C21.6638 3.36979 20.8538 2.37137 19.7338 2.09026C18.6538 1.80915 17.4338 2.27444 16.2638 2.27444C15.0938 2.27444 13.8738 1.80915 12.7938 2.09026C11.6738 2.38106 10.8638 3.37948 9.88384 3.92231C8.89384 4.47484 7.59384 4.6687 6.79384 5.44418C5.99384 6.21965 5.79384 7.47979 5.22384 8.43944C4.65384 9.38939 3.62384 10.1746 3.33384 11.2602C3.04384 12.3071 3.52384 13.4897 3.52384 14.6238C3.52384 15.7579 3.04384 16.9405 3.33384 17.9874C3.63384 19.0731 4.66384 19.8583 5.22384 20.8082C5.79384 21.7679 5.99384 23.028 6.79384 23.8035C7.59384 24.5789 8.89384 24.7728 9.88384 25.3253C10.8638 25.8779 11.6738 26.8763 12.7938 27.1574C13.8738 27.4385 15.0938 26.9732 16.2638 26.9732C17.4338 26.9732 18.6538 27.4385 19.7338 27.1574C20.8538 26.8666 21.6638 25.8682 22.6438 25.3253C23.6338 24.7728 24.9338 24.5789 25.7338 23.8035C26.5338 23.028 26.7338 21.7679 27.3038 20.8082C27.8738 19.8583 28.9038 19.0731 29.1938 17.9874C29.4838 16.9309 29.0038 15.7579 29.0038 14.6238Z" fill="url(#paint2_radial_18_31080)"/>
<g filter="url(#filter0_f_18_31080)">
<path d="M28.3573 15.0861C28.3573 13.954 28.8112 12.6075 28.537 11.5625C28.2534 10.4788 27.4357 9.72952 26.9062 8.78125C26.3673 7.82331 26.0221 6.51177 25.2657 5.73768C24.5094 4.96358 23.2797 4.7101 22.3437 4.15855C21.4172 3.60701 20.652 2.85539 19.5931 2.57478C18.5721 2.29417 17.4186 2.75863 16.3125 2.75863C15.2063 2.75863 14.0529 2.29417 13.0318 2.57478C11.9729 2.86507 11.0203 3.64827 10.0937 4.19013C9.15776 4.74168 7.91259 4.96358 7.15624 5.73768C6.39989 6.51177 5.97638 7.82331 5.43749 8.78125C4.89859 9.72952 4.0554 10.3225 3.78122 11.4062C3.50704 12.4513 4.08803 14.0487 4.08803 15.1808C4.08803 16.313 3.50704 17.1425 3.78122 18.1875C4.06485 19.2712 5.34545 20.3112 5.87489 21.2595C6.41379 22.2174 6.60288 23.4754 7.35923 24.2494C8.11557 25.0235 9.34464 25.2171 10.2806 25.7686C11.2071 26.3202 11.9729 27.3168 13.0318 27.5974C14.0529 27.878 15.2063 27.4136 16.3125 27.4136C17.4186 27.4136 18.5721 27.878 19.5931 27.5974C20.652 27.3071 21.4178 26.3105 22.3444 25.7686C23.2803 25.2171 24.5094 25.0235 25.2657 24.2494C26.0221 23.4754 26.2112 22.2174 26.7501 21.2595C27.289 20.3112 28.2628 19.5275 28.537 18.4437C28.8111 17.389 28.3573 16.2182 28.3573 15.0861Z" fill="url(#paint3_linear_18_31080)"/>
</g>
<path d="M21.9038 18.6231C21.0038 19.7831 19.7138 20.5231 18.2638 20.7031C16.8438 20.8831 15.4338 20.5131 14.2838 19.6531C14.2638 19.6431 14.2438 19.6231 14.2238 19.6131L14.2138 19.6031L14.2038 19.5931C13.3338 18.9131 12.8838 17.8231 13.0638 16.6631C13.0838 16.5431 13.1138 16.4131 13.1538 16.3031C13.8438 14.1631 16.3138 13.5231 17.9338 14.7331C17.9438 14.7331 17.9438 14.7431 17.9538 14.7431C18.0538 14.8231 18.1438 14.9231 18.1838 15.0531C18.2938 15.3631 18.1738 15.6931 17.8638 15.8631C17.6538 15.9831 17.3838 15.9431 17.1838 15.7931L17.1738 15.7831L17.1438 15.7631C16.5938 15.3531 15.8538 15.2631 15.2538 15.6131C14.5738 16.0031 14.2438 16.7031 14.3338 17.4131C14.3938 17.8731 14.6238 18.2831 14.9838 18.5731L15.0038 18.5831C15.0138 18.5931 15.0338 18.6031 15.0538 18.6231C15.9338 19.2831 17.0038 19.5631 18.0938 19.4231C19.2038 19.2831 20.1938 18.7131 20.8738 17.8331C21.5638 16.9431 21.8638 15.8331 21.7138 14.7131C21.5738 13.6831 21.0438 12.7631 20.2638 12.0731L20.1338 11.9631L20.1238 11.9531C20.0938 11.9331 20.0638 11.9131 20.0438 11.8931C18.6638 10.8631 16.9638 10.4131 15.2538 10.6231C13.5038 10.8431 11.9438 11.7331 10.8638 13.1331C10.1238 14.0931 9.66381 15.2131 9.52381 16.3831C9.49381 16.6731 9.27381 16.9031 8.98381 16.9531H8.97381C8.56381 17.0231 8.18381 16.6731 8.23381 16.2531C8.39381 14.8431 8.94381 13.4931 9.83381 12.3331C11.1238 10.6631 12.9938 9.59308 15.0838 9.33308C17.1338 9.07308 19.1638 9.61308 20.8138 10.8431C20.8438 10.8631 20.8838 10.8931 20.9138 10.9231L20.9338 10.9431C22.0838 11.8431 22.8138 13.1231 22.9938 14.5731C23.1838 16.0331 22.7938 17.4731 21.9038 18.6231Z" fill="url(#paint4_linear_18_31080)"/>
<defs>
<filter id="filter0_f_18_31080" x="3.2077" y="1.98468" width="25.9173" height="26.2028" filterUnits="userSpaceOnUse" color-interpolation-filters="sRGB">
<feFlood flood-opacity="0" result="BackgroundImageFix"/>
<feBlend mode="normal" in="SourceGraphic" in2="BackgroundImageFix" result="shape"/>
<feGaussianBlur stdDeviation="0.25" result="effect1_foregroundBlur_18_31080"/>
</filter>
<linearGradient id="paint0_linear_18_31080" x1="3.8125" y1="21.25" x2="29.5297" y2="21.25" gradientUnits="userSpaceOnUse">
<stop stop-color="#B3ACC0"/>
<stop offset="0.0753388" stop-color="#BAADCC"/>
<stop offset="0.138526" stop-color="#CEAEF0"/>
<stop offset="0.245458" stop-color="#CCAEEC"/>
<stop offset="0.320797" stop-color="#CFAEF3"/>
<stop offset="0.420439" stop-color="#D6B3FB"/>
<stop offset="0.556535" stop-color="#D5B1FA"/>
<stop offset="0.639164" stop-color="#DABEFB"/>
<stop offset="0.770399" stop-color="#D6BAF7"/>
<stop offset="0.86032" stop-color="#DDCBF6"/>
<stop offset="1" stop-color="#DCD2ED"/>
</linearGradient>
<radialGradient id="paint1_radial_18_31080" cx="0" cy="0" r="1" gradientUnits="userSpaceOnUse" gradientTransform="translate(5.375 10.875) rotate(27.7511) scale(8.05104 16.4747)">
<stop stop-color="#A8A8AD"/>
<stop offset="1" stop-color="#A9A8AF" stop-opacity="0"/>
</radialGradient>
<radialGradient id="paint2_radial_18_31080" cx="0" cy="0" r="1" gradientUnits="userSpaceOnUse" gradientTransform="translate(25.625 8.54304) rotate(93.3737) scale(21.2411 14.3014)">
<stop stop-color="#F8F8FF"/>
<stop offset="0.61188" stop-color="#E8DFFA"/>
<stop offset="1" stop-color="#F4F1FF" stop-opacity="0"/>
</radialGradient>
<linearGradient id="paint3_linear_18_31080" x1="6" y1="10.9488" x2="28.2653" y2="15.0022" gradientUnits="userSpaceOnUse">
<stop stop-color="#DAD4E8"/>
<stop offset="1" stop-color="#DAD4E9"/>
</linearGradient>
<linearGradient id="paint4_linear_18_31080" x1="9.625" y1="15.0084" x2="23.0409" y2="15.0084" gradientUnits="userSpaceOnUse">
<stop stop-color="#E53951"/>
<stop offset="0.493819" stop-color="#E63670"/>
<stop offset="1" stop-color="#E33481"/>
</linearGradient>
</defs>
</svg>

<svg width="100%" height="100%" viewBox="0 0 32 32" xmlns="http://www.w3.org/2000/svg"><path fill="url(#a)" d="M3.214 17.733c-.12.89-.34 1.79-.12 2.6.3 1.14 1.35 1.96 1.93 2.96.58 1.01.78 2.33 1.6 3.15s2.14 1.02 3.15 1.6c.99.58 1.82 1.62 2.96 1.93 1.1.29 2.34-.19 3.53-.19s2.43.49 3.53.19c1.14-.3 1.96-1.35 2.96-1.93 1.01-.58 2.33-.78 3.15-1.6s1.02-2.14 1.6-3.15c.58-.99 1.62-1.82 1.93-2.96.22-.82.01-1.71-.12-2.6z"/><path fill="#DAD4E8" d="M29.004 14.624c0-1.134.48-2.317.19-3.364-.3-1.085-1.33-1.87-1.89-2.82-.57-.96-.77-2.22-1.57-2.996s-2.1-.97-3.09-1.522c-.98-.552-1.79-1.55-2.91-1.832-1.08-.28-2.3.184-3.47.184s-2.39-.465-3.47-.184c-1.12.291-1.93 1.29-2.91 1.832-.99.553-2.29.747-3.09 1.522-.8.776-1 2.036-1.57 2.995-.57.95-1.6 1.736-1.89 2.821-.29 1.047.19 2.23.19 3.364s-.48 2.316-.19 3.363c.3 1.086 1.33 1.871 1.89 2.821.57.96.77 2.22 1.57 2.996s2.1.969 3.09 1.521c.98.553 1.79 1.551 2.91 1.832 1.08.282 2.3-.184 3.47-.184s2.39.466 3.47.184c1.12-.29 1.93-1.289 2.91-1.832.99-.552 2.29-.746 3.09-1.521.8-.776 1-2.036 1.57-2.996.57-.95 1.6-1.735 1.89-2.82.29-1.057-.19-2.23-.19-3.364"/><path fill="url(#b)" d="M29.004 14.624c0-1.134.48-2.317.19-3.364-.3-1.085-1.33-1.87-1.89-2.82-.57-.96-.77-2.22-1.57-2.996s-2.1-.97-3.09-1.522c-.98-.552-1.79-1.55-2.91-1.832-1.08-.28-2.3.184-3.47.184s-2.39-.465-3.47-.184c-1.12.291-1.93 1.29-2.91 1.832-.99.553-2.29.747-3.09 1.522-.8.776-1 2.036-1.57 2.995-.57.95-1.6 1.736-1.89 2.821-.29 1.047.19 2.23.19 3.364s-.48 2.316-.19 3.363c.3 1.086 1.33 1.871 1.89 2.821.57.96.77 2.22 1.57 2.996s2.1.969 3.09 1.521c.98.553 1.79 1.551 2.91 1.832 1.08.282 2.3-.184 3.47-.184s2.39.466 3.47.184c1.12-.29 1.93-1.289 2.91-1.832.99-.552 2.29-.746 3.09-1.521.8-.776 1-2.036 1.57-2.996.57-.95 1.6-1.735 1.89-2.82.29-1.057-.19-2.23-.19-3.364"/><path fill="url(#c)" d="M29.004 14.624c0-1.134.48-2.317.19-3.364-.3-1.085-1.33-1.87-1.89-2.82-.57-.96-.77-2.22-1.57-2.996s-2.1-.97-3.09-1.522c-.98-.552-1.79-1.55-2.91-1.832-1.08-.28-2.3.184-3.47.184s-2.39-.465-3.47-.184c-1.12.291-1.93 1.29-2.91 1.832-.99.553-2.29.747-3.09 1.522-.8.776-1 2.036-1.57 2.995-.57.95-1.6 1.736-1.89 2.821-.29 1.047.19 2.23.19 3.364s-.48 2.316-.19 3.363c.3 1.086 1.33 1.871 1.89 2.821.57.96.77 2.22 1.57 2.996s2.1.969 3.09 1.521c.98.553 1.79 1.551 2.91 1.832 1.08.282 2.3-.184 3.47-.184s2.39.466 3.47.184c1.12-.29 1.93-1.289 2.91-1.832.99-.552 2.29-.746 3.09-1.521.8-.776 1-2.036 1.57-2.996.57-.95 1.6-1.735 1.89-2.82.29-1.057-.19-2.23-.19-3.364"/><g filter="url(#d)"><path fill="url(#e)" d="M28.357 15.086c0-1.132.454-2.479.18-3.524-.284-1.083-1.101-1.832-1.63-2.78-.54-.959-.885-2.27-1.641-3.044-.757-.774-1.986-1.028-2.922-1.58-.927-.551-1.692-1.303-2.75-1.583-1.022-.28-2.175.184-3.282.184-1.106 0-2.26-.465-3.28-.184-1.06.29-2.012 1.073-2.938 1.615-.936.552-2.181.774-2.938 1.548-.756.774-1.18 2.085-1.719 3.043-.538.949-1.382 1.541-1.656 2.625-.274 1.045.307 2.643.307 3.775s-.581 1.961-.307 3.007c.284 1.083 1.564 2.123 2.094 3.072.539.957.728 2.215 1.484 2.99.757.773 1.986.967 2.922 1.519.926.551 1.692 1.548 2.75 1.828 1.022.281 2.175-.183 3.281-.183s2.26.464 3.281.183c1.059-.29 1.825-1.287 2.751-1.828.936-.552 2.165-.745 2.922-1.52.756-.774.945-2.032 1.484-2.99.539-.948 1.513-1.732 1.787-2.815.274-1.055-.18-2.226-.18-3.358"/></g><path fill="url(#f)" d="M21.904 18.623c-.9 1.16-2.19 1.9-3.64 2.08-1.42.18-2.83-.19-3.98-1.05-.02-.01-.04-.03-.06-.04l-.01-.01-.01-.01c-.87-.68-1.32-1.77-1.14-2.93.02-.12.05-.25.09-.36a3.08 3.08 0 0 1 4.78-1.57c.01 0 .01.01.02.01.1.08.19.18.23.31.11.31-.01.64-.32.81-.21.12-.48.08-.68-.07l-.01-.01-.03-.02c-.55-.41-1.29-.5-1.89-.15-.68.39-1.01 1.09-.92 1.8.06.46.29.87.65 1.16l.02.01c.01.01.03.02.05.04.88.66 1.95.94 3.04.8 1.11-.14 2.1-.71 2.78-1.59.69-.89.99-2 .84-3.12-.14-1.03-.67-1.95-1.45-2.64l-.13-.11-.01-.01a6.62 6.62 0 0 0-4.87-1.33 6.54 6.54 0 0 0-4.39 2.51c-.74.96-1.2 2.08-1.34 3.25-.03.29-.25.52-.54.57h-.01a.64.64 0 0 1-.74-.7 7.9 7.9 0 0 1 1.6-3.92 7.82 7.82 0 0 1 5.25-3c2.05-.26 4.08.28 5.73 1.51a1 1 0 0 1 .1.08l.02.02c1.15.9 1.88 2.18 2.06 3.63.19 1.46-.2 2.9-1.09 4.05"/><defs><linearGradient id="a" x1="3.813" x2="29.53" y1="21.25" y2="21.25" gradientUnits="userSpaceOnUse"><stop stop-color="#B3ACC0"/><stop offset=".075" stop-color="#BAADCC"/><stop offset=".139" stop-color="#CEAEF0"/><stop offset=".245" stop-color="#CCAEEC"/><stop offset=".321" stop-color="#CFAEF3"/><stop offset=".42" stop-color="#D6B3FB"/><stop offset=".557" stop-color="#D5B1FA"/><stop offset=".639" stop-color="#DABEFB"/><stop offset=".77" stop-color="#D6BAF7"/><stop offset=".86" stop-color="#DDCBF6"/><stop offset="1" stop-color="#DCD2ED"/></linearGradient><linearGradient id="e" x1="6" x2="28.265" y1="10.949" y2="15.002" gradientUnits="userSpaceOnUse"><stop stop-color="#DAD4E8"/><stop offset="1" stop-color="#DAD4E9"/></linearGradient><linearGradient id="f" x1="9.625" x2="23.041" y1="15.008" y2="15.008" gradientUnits="userSpaceOnUse"><stop stop-color="#E53951"/><stop offset=".494" stop-color="#E63670"/><stop offset="1" stop-color="#E33481"/></linearGradient><radialGradient id="b" cx="0" cy="0" r="1" gradientTransform="rotate(27.751 -19.325 16.317)scale(8.05104 16.4747)" gradientUnits="userSpaceOnUse"><stop stop-color="#A8A8AD"/><stop offset="1" stop-color="#A9A8AF" stop-opacity="0"/></radialGradient><radialGradient id="c" cx="0" cy="0" r="1" gradientTransform="matrix(-1.25 21.20429 -14.27661 -.84161 25.625 8.543)" gradientUnits="userSpaceOnUse"><stop stop-color="#F8F8FF"/><stop offset=".612" stop-color="#E8DFFA"/><stop offset="1" stop-color="#F4F1FF" stop-opacity="0"/></radialGradient><filter id="d" width="25.917" height="26.203" x="3.208" y="1.985" color-interpolation-filters="sRGB" filterUnits="userSpaceOnUse"><feFlood flood-opacity="0" result="BackgroundImageFix"/><feBlend in="SourceGraphic" in2="BackgroundImageFix" result="shape"/><feGaussianBlur result="effect1_foregroundBlur_18_31080" stdDeviation=".25"/></filter></defs></svg>
